icons/24x24_archive_filled.svg

<svg xmlns="http://www.w3.org/2000/svg" width="24" height="24" viewBox="0 0 24 24">
  <path d="M21,9 L21,19 C21,20.1045695 20.1045695,21 19,21 L5,21 C3.8954305,21 3,20.1045695 3,19 L3,9 L21,9 Z M2,3 L22,3 L22,7 C22,7.55228475 21.5522847,8 21,8 L3,8 C2.44771525,8 2,7.55228475 2,7 L2,3 Z M9,12 C8.44771525,12 8,12.4477153 8,13 C8,13.5522847 8.44771525,14 9,14 L15,14 C15.5522847,14 16,13.5522847 16,13 C16,12.4477153 15.5522847,12 15,12 L9,12 Z"/>
</svg>

<svg width="24" height="24" fill="none" xmlns="http://www.w3.org/2000/svg"><path d="M21 9v10a2 2 0 0 1-2 2H5a2 2 0 0 1-2-2V9h18ZM2 3h20v4a1 1 0 0 1-1 1H3a1 1 0 0 1-1-1V3Zm7 9a1 1 0 1 0 0 2h6a1 1 0 1 0 0-2H9Z" fill="#000"/></svg>
